!!!OTL: SCHON WIEDER TOENTS VOM SCHACHTE HER
!!!ARE: Europa, Mitteleuropa, Deutschland, Hessen, Nassau
!!!SCT: E1530
!!!YEM: Copyright 1995, estate of Helmut Schaffrath.
**kern
*ICvox
*Ivox
*M6/8
*k[]
*C:
{8G
=1
4G
8c
4E
8E
=2
4E
8G
4C}
{8C
=3
4A
8A
8c
8B
8A
=4
4.A
8G
8r}
{8G
=5
4G
8F
4A
8F
=6
4F
8E
4G}
{8G
=7
4G
8G
8G
8A
8B
=8
4.d
8c
8r}
{8c
=9
4d
8G
4G
8F
=10
4E
8G
4c}
{8c
=11
4d
8G
4G
8F
=12
4E
8G
4c}
{8c
=13
4A
8A
8c
8B
8A
=14
4.G
8c
8r}
{8c
=15
4.B
4A
8B
=16
4c
8E
4A}
{8G
=17
4G
8e
4e
8d
=18
2c
8r}
==
!!!AGN: Staende -, Bergmanns - Lied
!!!ONB: ESAC (Essen Associative Code) Database: ERK3
!!!AMT: compound duple
!!!AIN: vox
!!!EED: Helmut Schaffrath
!!!EEV: 1.0
*-
